src/icons/vsphere.svg

<?xml version="1.0" encoding="UTF-8"?>
<svg xmlns="http://www.w3.org/2000/svg" xmlns:xlink="http://www.w3.org/1999/xlink" width="30.745098" height="32" viewBox="0 0 30.745098 32" version="1.1">
<g id="surface1">
<path style=" stroke:none;fill-rule:nonzero;fill:rgb(26.274511%,26.666668%,27.058825%);fill-opacity:1;" d="M 13.144531 0.3125 C 10.574219 0.3125 8.484375 2.414062 8.484375 5 L 8.484375 8.46875 L 4.917969 8.46875 C 2.378906 8.46875 0.3125 10.546875 0.3125 13.109375 L 0.3125 27.050781 C 0.3125 29.609375 2.378906 31.6875 4.917969 31.6875 L 17.664062 31.6875 C 20.210938 31.6875 22.273438 29.609375 22.273438 27.050781 L 22.273438 23.386719 L 25.769531 23.386719 C 28.34375 23.386719 30.429688 21.289062 30.429688 18.699219 L 30.429688 5 C 30.429688 2.414062 28.34375 0.3125 25.769531 0.3125 Z M 13.144531 1.457031 L 25.769531 1.457031 C 27.734375 1.457031 29.296875 3.023438 29.296875 5 L 29.296875 18.699219 C 29.296875 20.675781 27.734375 22.25 25.769531 22.25 L 21.714844 22.25 C 21.371094 22.25 21.140625 22.519531 21.140625 22.859375 L 21.140625 27.050781 C 21.140625 28.996094 19.601562 30.542969 17.664062 30.542969 L 4.917969 30.542969 C 2.988281 30.542969 1.449219 28.996094 1.449219 27.050781 L 1.449219 13.109375 C 1.449219 11.164062 2.988281 9.613281 4.917969 9.613281 L 9.015625 9.613281 C 9.4375 9.613281 9.617188 9.3125 9.617188 8.949219 L 9.617188 5 C 9.617188 3.023438 11.179688 1.457031 13.144531 1.457031 Z M 15.960938 7.453125 C 15.535156 7.453125 15.191406 7.800781 15.191406 8.230469 L 15.191406 15.496094 C 15.191406 15.542969 15.195312 15.585938 15.203125 15.625 C 15.117188 15.597656 15.027344 15.578125 14.925781 15.578125 L 8.230469 15.578125 C 7.769531 15.578125 7.398438 15.957031 7.398438 16.425781 L 7.398438 23.609375 C 7.398438 24.082031 7.769531 24.457031 8.230469 24.457031 L 14.925781 24.457031 C 15.398438 24.457031 15.769531 24.082031 15.769531 23.609375 L 15.769531 16.425781 C 15.769531 16.363281 15.761719 16.300781 15.75 16.246094 C 15.816406 16.261719 15.886719 16.277344 15.960938 16.277344 L 22.75 16.277344 C 23.179688 16.277344 23.523438 15.929688 23.523438 15.496094 L 23.523438 8.230469 C 23.523438 7.800781 23.179688 7.453125 22.75 7.453125 Z M 15.960938 7.453125 "/>
</g>
</svg>

<svg role="img" viewBox="0 0 30.745 32" xmlns="http://www.w3.org/2000/svg"><path d="M13.145.313c-2.57 0-4.66 2.101-4.66 4.687v3.469H4.917c-2.54 0-4.605 2.078-4.605 4.64v13.942c0 2.558 2.066 4.637 4.605 4.637h12.746c2.547 0 4.61-2.079 4.61-4.637v-3.664h3.496c2.574 0 4.66-2.098 4.66-4.688V5c0-2.586-2.086-4.687-4.66-4.687Zm0 1.144H25.77A3.512 3.512 0 0 1 29.297 5v13.7c0 1.976-1.563 3.55-3.527 3.55h-4.055c-.344 0-.574.27-.574.61v4.19a3.463 3.463 0 0 1-3.477 3.493H4.918c-1.93 0-3.469-1.547-3.469-3.492V13.109c0-1.945 1.54-3.496 3.469-3.496h4.098c.422 0 .601-.3.601-.664V5a3.512 3.512 0 0 1 3.528-3.543m2.816 5.996a.773.773 0 0 0-.77.777v7.266c0 .047.004.09.012.129a.897.897 0 0 0-.277-.047H8.23a.839.839 0 0 0-.832.848v7.183c0 .473.372.848.832.848h6.696a.839.839 0 0 0 .844-.848v-7.183a.873.873 0 0 0-.02-.18.916.916 0 0 0 .21.031h6.79c.43 0 .773-.347.773-.78V8.23a.774.774 0 0 0-.773-.777Zm0 0" style="stroke:none;fill-rule:nonzero;fill:rgb(26.274511%,26.666668%,27.058825%);fill-opacity:1"/></svg>
